X:7690
T:Trip to the Phone
O:england
M:C|
L:1/8
Q:230
C:John McCusker
R:reel
K:D
|:A,3F FEDF|EGFD EDB,G,|~A,3F FEDF|ABAF EDFA|
d~B3 BAFE|DFAB ADFA|B~F3 AFDF|1D~E3 EDB,G,:|2D~E3 EFGB||
AdcA G2(3EFG|FDGF EFGB|AdcA G2(3EFG|Adfd edef|
AdcA G2(3EFG|FDGF EDB,D|A,3F FEDF|
(3EFG FD EFGB|AdcA G2(3EFG|FDGF EFGB|AdcA G2(3EFG|
Adfd edef-|fedB ADFA|G~E3 EDB,G,|A,3F FEDF|(3EFG FD EDB,G,||
